src/images/app-icons/dark-theme/004.svg

<svg xmlns="http://www.w3.org/2000/svg" viewBox="0 0 32 32"><defs><linearGradient id="004_svg__a" x1="-2347.495" y1="3182.5" x2="-2337.495" y2="3182.5" gradientTransform="translate(2363.495 -3159.495)" gradientUnits="userSpaceOnUse"><stop offset=".1"/><stop offset="1" stop-opacity="0"/></linearGradient><linearGradient id="004_svg__c" y1="32" x2="32" gradientUnits="userSpaceOnUse"><stop offset=".1" stop-color="#3ddbd9"/><stop offset=".9" stop-color="#4589ff"/></linearGradient><mask id="004_svg__b" x="0" y="0" width="32" height="32" maskUnits="userSpaceOnUse"><path d="M9 12.005v-2H4a2 2 0 00-2 2v16a2 2 0 002 2h16a2 2 0 002-2v-9h-2v9H4v-16" fill="#fff"/><path transform="rotate(90 21 23.005)" fill="url(#004_svg__a)" d="M16 21.005h10v4H16z"/></mask></defs><g data-name="Layer 2"><g data-name="Dark theme icons"><g mask="url(#004_svg__b)"><path fill="url(#004_svg__c)" d="M0 0h32v32H0z"/></g><path d="M27 21a3 3 0 113-3 3 3 0 01-3 3zm0-4a1 1 0 101 1 1 1 0 00-1-1zM12 24.005a4 4 0 114-4 4 4 0 01-4 4zm0-6a2 2 0 102 2 2 2 0 00-2-2zM18 14a6 6 0 116-6 6.006 6.006 0 01-6 6zm0-10a4 4 0 104 4 4 4 0 00-4-4z" fill="#f4f4f4"/></g></g></svg>

<svg xmlns="http://www.w3.org/2000/svg" xmlns:xlink="http://www.w3.org/1999/xlink" viewBox="0 0 32 32"><defs><style>.cls-1{fill:#fff;}.cls-2{fill:url(#linear-gradient);}.cls-3{mask:url(#mask);}.cls-4{fill:url(#linear-gradient-2);}.cls-5{fill:#f4f4f4;}</style><linearGradient id="linear-gradient" x1="-2347.495" y1="3182.5" x2="-2337.495" y2="3182.5" gradientTransform="translate(2363.495 -3159.495)" gradientUnits="userSpaceOnUse"><stop offset="0.1"/><stop offset="1" stop-opacity="0"/></linearGradient><mask id="mask" x="0" y="0" width="32" height="32" maskUnits="userSpaceOnUse"><path class="cls-1" d="M9,12.005v-2H4a2,2,0,0,0-2,2v16a2,2,0,0,0,2,2H20a2,2,0,0,0,2-2v-9H20v9H4v-16"/><rect class="cls-2" x="16" y="21.005" width="10" height="4" transform="translate(44.005 2.005) rotate(90)"/></mask><linearGradient id="linear-gradient-2" y1="32" x2="32" gradientUnits="userSpaceOnUse"><stop offset="0.1" stop-color="#3ddbd9"/><stop offset="0.9" stop-color="#4589ff"/></linearGradient></defs><g id="Layer_2" data-name="Layer 2"><g id="Dark_theme_icons" data-name="Dark theme icons"><g class="cls-3"><rect class="cls-4" width="32" height="32"/></g><path class="cls-5" d="M27,21a3,3,0,1,1,3-3A3,3,0,0,1,27,21Zm0-4a1,1,0,1,0,1,1A1,1,0,0,0,27,17Z"/><path class="cls-5" d="M12,24.005a4,4,0,1,1,4-4A4,4,0,0,1,12,24.005Zm0-6a2,2,0,1,0,2,2A2,2,0,0,0,12,18.005Z"/><path class="cls-5" d="M18,14a6,6,0,1,1,6-6A6.006,6.006,0,0,1,18,14ZM18,4a4,4,0,1,0,4,4A4,4,0,0,0,18,4Z"/></g></g></svg>
